svg/color/avr.svg

<?xml version="1.0" encoding="UTF-8" ?>
<!DOCTYPE svg PUBLIC "-//W3C//DTD SVG 1.1//EN" "http://www.w3.org/Graphics/SVG/1.1/DTD/svg11.dtd">
<svg width="250pt" height="250pt" viewBox="0 0 250 250" version="1.1" xmlns="http://www.w3.org/2000/svg">
<g id="#ffffffff">
<path fill="#ffffff" opacity="1.00" d=" M 0.00 0.00 L 117.44 0.00 C 89.63 1.96 62.46 13.00 41.72 31.73 C 26.69 45.11 14.98 62.21 7.91 81.05 C 3.51 92.52 1.20 104.66 0.00 116.85 L 0.00 0.00 Z" />
<path fill="#ffffff" opacity="1.00" d=" M 133.15 0.00 L 250.00 0.00 L 250.00 117.44 C 248.78 102.71 245.50 88.09 239.45 74.57 C 226.84 45.75 202.92 22.13 173.94 9.91 C 161.03 4.30 147.13 1.34 133.15 0.00 Z" />
<path fill="#ffffff" opacity="1.00" d=" M 0.00 132.57 C 1.23 147.29 4.50 161.90 10.55 175.41 C 23.04 203.99 46.66 227.46 75.31 239.77 C 88.44 245.57 102.60 248.65 116.85 250.00 L 0.00 250.00 L 0.00 132.57 Z" />
<path fill="#ffffff" opacity="1.00" d=" M 240.10 173.92 C 245.70 161.00 248.68 147.10 250.00 133.12 L 250.00 250.00 L 132.58 250.00 C 147.30 248.76 161.92 245.50 175.44 239.44 C 204.26 226.84 227.88 202.90 240.10 173.92 Z" />
</g>
<g id="#48dca8ff">
<path fill="#48dca8" opacity="1.00" d=" M 117.44 0.00 L 133.15 0.00 C 147.13 1.34 161.03 4.30 173.94 9.91 C 202.92 22.13 226.84 45.75 239.45 74.57 C 245.50 88.09 248.78 102.71 250.00 117.44 L 250.00 133.12 C 248.68 147.10 245.70 161.00 240.10 173.92 C 227.88 202.90 204.26 226.84 175.44 239.44 C 161.92 245.50 147.30 248.76 132.58 250.00 L 116.85 250.00 C 102.60 248.65 88.44 245.57 75.31 239.77 C 46.66 227.46 23.04 203.99 10.55 175.41 C 4.50 161.90 1.23 147.29 0.00 132.57 L 0.00 116.85 C 1.20 104.66 3.51 92.52 7.91 81.05 C 14.98 62.21 26.69 45.11 41.72 31.73 C 62.46 13.00 89.63 1.96 117.44 0.00 M 108.58 4.83 C 81.84 8.42 56.47 21.28 37.81 40.77 C 18.93 60.14 6.87 86.06 4.35 113.00 C 1.24 142.46 9.62 172.92 27.22 196.73 C 43.86 219.42 68.55 236.10 95.92 242.74 C 123.18 249.54 152.79 246.45 178.02 234.07 C 205.24 220.92 227.16 197.17 238.04 168.95 C 248.08 143.33 248.96 114.26 240.53 88.07 C 231.57 59.69 211.63 35.04 185.90 20.12 C 162.78 6.61 135.10 1.16 108.58 4.83 Z" />
<path fill="#48dca8" opacity="1.00" d=" M 51.53 68.41 C 60.97 68.36 70.41 68.41 79.84 68.38 C 91.39 95.25 102.82 122.18 114.25 149.10 C 115.56 146.70 116.68 144.20 117.71 141.67 C 128.23 117.24 138.83 92.85 149.33 68.41 C 158.04 68.38 166.76 68.37 175.47 68.42 C 159.05 106.16 142.78 143.97 126.38 181.71 C 117.72 181.70 109.07 181.73 100.41 181.70 C 84.14 143.93 67.86 106.16 51.53 68.41 Z" />
<path fill="#48dca8" opacity="1.00" d=" M 102.03 68.42 C 110.70 68.36 119.37 68.38 128.04 68.42 C 131.11 75.34 134.18 82.27 137.33 89.16 C 133.32 98.39 129.45 107.70 125.30 116.87 C 125.06 116.86 124.58 116.84 124.34 116.83 C 121.05 109.48 118.24 101.91 114.98 94.54 C 111.16 102.27 108.28 110.43 104.87 118.34 C 103.72 117.25 103.05 115.82 102.48 114.38 C 99.17 106.27 95.54 98.30 92.29 90.16 C 95.63 82.96 98.81 75.68 102.03 68.42 Z" />
<path fill="#48dca8" opacity="1.00" d=" M 177.86 69.92 C 187.56 76.37 195.14 86.36 197.50 97.89 C 200.22 109.82 196.36 123.00 187.62 131.58 C 180.80 138.62 171.29 142.53 161.66 143.73 C 167.41 156.35 172.94 169.06 178.71 181.68 C 169.50 181.73 160.28 181.75 151.07 181.66 C 147.63 173.08 143.97 164.58 140.55 155.99 C 145.12 145.53 149.62 135.03 154.14 124.54 C 162.45 125.58 171.28 121.95 175.68 114.68 C 181.51 105.82 179.29 92.97 170.95 86.45 C 172.81 80.77 175.56 75.43 177.86 69.92 Z" />
<path fill="#48dca8" opacity="1.00" d=" M 51.55 181.70 C 59.43 164.42 66.76 146.87 74.96 129.74 C 79.25 139.52 83.36 149.38 87.71 159.13 C 84.73 166.70 81.54 174.19 78.43 181.72 C 69.47 181.70 60.51 181.72 51.55 181.70 Z" />
<path fill="#48dca8" opacity="1.00" d=" M 112.36 137.54 C 113.75 137.54 115.14 137.55 116.54 137.57 C 115.81 139.07 115.08 140.58 114.34 142.08 C 113.68 140.56 113.02 139.05 112.36 137.54 Z" />
</g>
<g id="#1f2128ff">
<path fill="#1f2128" opacity="1.00" d=" M 108.58 4.83 C 135.10 1.16 162.78 6.61 185.90 20.12 C 211.63 35.04 231.57 59.69 240.53 88.07 C 248.96 114.26 248.08 143.33 238.04 168.95 C 227.16 197.17 205.24 220.92 178.02 234.07 C 152.79 246.45 123.18 249.54 95.92 242.74 C 68.55 236.10 43.86 219.42 27.22 196.73 C 9.62 172.92 1.24 142.46 4.35 113.00 C 6.87 86.06 18.93 60.14 37.81 40.77 C 56.47 21.28 81.84 8.42 108.58 4.83 M 51.53 68.41 C 67.86 106.16 84.14 143.93 100.41 181.70 C 109.07 181.73 117.72 181.70 126.38 181.71 C 142.78 143.97 159.05 106.16 175.47 68.42 C 166.76 68.37 158.04 68.38 149.33 68.41 C 138.83 92.85 128.23 117.24 117.71 141.67 C 116.68 144.20 115.56 146.70 114.25 149.10 C 102.82 122.18 91.39 95.25 79.84 68.38 C 70.41 68.41 60.97 68.36 51.53 68.41 M 102.03 68.42 C 98.81 75.68 95.63 82.96 92.29 90.16 C 95.54 98.30 99.17 106.27 102.48 114.38 C 103.05 115.82 103.72 117.25 104.87 118.34 C 108.28 110.43 111.16 102.27 114.98 94.54 C 118.24 101.91 121.05 109.48 124.34 116.83 C 124.58 116.84 125.06 116.86 125.30 116.87 C 129.45 107.70 133.32 98.39 137.33 89.16 C 134.18 82.27 131.11 75.34 128.04 68.42 C 119.37 68.38 110.70 68.36 102.03 68.42 M 177.86 69.92 C 175.56 75.43 172.81 80.77 170.95 86.45 C 179.29 92.97 181.51 105.82 175.68 114.68 C 171.28 121.95 162.45 125.58 154.14 124.54 C 149.62 135.03 145.12 145.53 140.55 155.99 C 143.97 164.58 147.63 173.08 151.07 181.66 C 160.28 181.75 169.50 181.73 178.71 181.68 C 172.94 169.06 167.41 156.35 161.66 143.73 C 171.29 142.53 180.80 138.62 187.62 131.58 C 196.36 123.00 200.22 109.82 197.50 97.89 C 195.14 86.36 187.56 76.37 177.86 69.92 M 51.55 181.70 C 60.51 181.72 69.47 181.70 78.43 181.72 C 81.54 174.19 84.73 166.70 87.71 159.13 C 83.36 149.38 79.25 139.52 74.96 129.74 C 66.76 146.87 59.43 164.42 51.55 181.70 M 112.36 137.54 C 113.02 139.05 113.68 140.56 114.34 142.08 C 115.08 140.58 115.81 139.07 116.54 137.57 C 115.14 137.55 113.75 137.54 112.36 137.54 Z" />
</g>
</svg>

<?xml version="1.0" encoding="utf-8"?>
<!-- Generator: Adobe Illustrator 26.0.3, SVG Export Plug-In . SVG Version: 6.00 Build 0)  -->
<svg version="1.1" id="Layer_1" xmlns="http://www.w3.org/2000/svg" xmlns:xlink="http://www.w3.org/1999/xlink" x="0px" y="0px"
	 viewBox="0 0 250 250" style="enable-background:new 0 0 250 250;" xml:space="preserve">
<style type="text/css">
	.st0{fill:#48DCA8;}
	.st1{fill:#1F2128;}
</style>
<g id="_x23_48dca8ff">
	<path class="st0" d="M117.4,0h15.7c14,1.3,27.9,4.3,40.8,9.9c29,12.2,52.9,35.8,65.5,64.7c6.1,13.5,9.3,28.1,10.6,42.9v15.7
		c-1.3,14-4.3,27.9-9.9,40.8c-12.2,29-35.8,52.9-64.7,65.5c-13.5,6.1-28.1,9.3-42.9,10.6h-15.7c-14.2-1.4-28.4-4.4-41.5-10.2
		C46.7,227.5,23,204,10.6,175.4C4.5,161.9,1.2,147.3,0,132.6v-15.7c1.2-12.2,3.5-24.3,7.9-35.8C15,62.2,26.7,45.1,41.7,31.7
		C62.5,13,89.6,2,117.4,0 M108.6,4.8C81.8,8.4,56.5,21.3,37.8,40.8C18.9,60.1,6.9,86.1,4.3,113c-3.1,29.5,5.3,59.9,22.9,83.7
		c16.6,22.7,41.3,39.4,68.7,46c27.3,6.8,56.9,3.7,82.1-8.7c27.2-13.2,49.1-36.9,60-65.1c10-25.6,10.9-54.7,2.5-80.9
		c-9-28.4-28.9-53-54.6-67.9C162.8,6.6,135.1,1.2,108.6,4.8z"/>
	<path class="st0" d="M51.5,68.4c9.4-0.1,18.9,0,28.3,0c11.6,26.9,23,53.8,34.4,80.7c1.3-2.4,2.4-4.9,3.5-7.4
		c10.5-24.4,21.1-48.8,31.6-73.3c8.7,0,17.4,0,26.1,0c-16.4,37.7-32.7,75.6-49.1,113.3c-8.7,0-17.3,0-26,0
		C84.1,143.9,67.9,106.2,51.5,68.4z"/>
	<path class="st0" d="M102,68.4c8.7-0.1,17.3,0,26,0c3.1,6.9,6.1,13.8,9.3,20.7c-4,9.2-7.9,18.5-12,27.7c-0.2,0-0.7,0-1,0
		c-3.3-7.3-6.1-14.9-9.4-22.3c-3.8,7.7-6.7,15.9-10.1,23.8c-1.2-1.1-1.8-2.5-2.4-4c-3.3-8.1-6.9-16.1-10.2-24.2
		C95.6,83,98.8,75.7,102,68.4z"/>
	<path class="st0" d="M177.9,69.9c9.7,6.5,17.3,16.4,19.6,28c2.7,11.9-1.1,25.1-9.9,33.7c-6.8,7-16.3,10.9-26,12.1
		c5.8,12.6,11.3,25.3,17.1,37.9c-9.2,0.1-18.4,0.1-27.6,0c-3.4-8.6-7.1-17.1-10.5-25.7c4.6-10.5,9.1-21,13.6-31.5
		c8.3,1,17.1-2.6,21.5-9.9c5.8-8.9,3.6-21.7-4.7-28.2C172.8,80.8,175.6,75.4,177.9,69.9z"/>
	<path class="st0" d="M51.5,181.7c7.9-17.3,15.2-34.8,23.4-52c4.3,9.8,8.4,19.6,12.8,29.4c-3,7.6-6.2,15.1-9.3,22.6
		C69.5,181.7,60.5,181.7,51.5,181.7z"/>
	<path class="st0" d="M112.4,137.5c1.4,0,2.8,0,4.2,0c-0.7,1.5-1.5,3-2.2,4.5C113.7,140.6,113,139.1,112.4,137.5z"/>
</g>
<g id="_x23_1f2128ff">
	<path class="st1" d="M108.6,4.8c26.5-3.7,54.2,1.8,77.3,15.3c25.7,14.9,45.7,39.6,54.6,67.9c8.4,26.2,7.6,55.3-2.5,80.9
		c-10.9,28.2-32.8,52-60,65.1c-25.2,12.4-54.8,15.5-82.1,8.7c-27.4-6.6-52.1-23.3-68.7-46C9.6,172.9,1.2,142.5,4.3,113
		c2.5-26.9,14.6-52.9,33.5-72.2C56.5,21.3,81.8,8.4,108.6,4.8 M51.5,68.4c16.3,37.8,32.6,75.5,48.9,113.3c8.7,0,17.3,0,26,0
		c16.4-37.7,32.7-75.6,49.1-113.3c-8.7,0-17.4,0-26.1,0c-10.5,24.4-21.1,48.8-31.6,73.3c-1,2.5-2.2,5-3.5,7.4
		c-11.4-26.9-22.9-53.9-34.4-80.7C70.4,68.4,61,68.4,51.5,68.4 M102,68.4c-3.2,7.3-6.4,14.5-9.7,21.7c3.2,8.1,6.9,16.1,10.2,24.2
		c0.6,1.4,1.2,2.9,2.4,4c3.4-7.9,6.3-16.1,10.1-23.8c3.3,7.4,6.1,14.9,9.4,22.3c0.2,0,0.7,0,1,0c4.1-9.2,8-18.5,12-27.7
		c-3.2-6.9-6.2-13.8-9.3-20.7C119.4,68.4,110.7,68.4,102,68.4 M177.9,69.9c-2.3,5.5-5.1,10.8-6.9,16.5c8.3,6.5,10.6,19.4,4.7,28.2
		c-4.4,7.3-13.2,10.9-21.5,9.9c-4.5,10.5-9,21-13.6,31.5c3.4,8.6,7.1,17.1,10.5,25.7c9.2,0.1,18.4,0.1,27.6,0
		c-5.8-12.6-11.3-25.3-17.1-37.9c9.6-1.2,19.1-5.1,26-12.1c8.7-8.6,12.6-21.8,9.9-33.7C195.1,86.4,187.6,76.4,177.9,69.9
		 M51.5,181.7c9,0,17.9,0,26.9,0c3.1-7.5,6.3-15,9.3-22.6c-4.3-9.8-8.5-19.6-12.8-29.4C66.8,146.9,59.4,164.4,51.5,181.7
		 M112.4,137.5c0.7,1.5,1.3,3,2,4.5c0.7-1.5,1.5-3,2.2-4.5C115.1,137.6,113.8,137.5,112.4,137.5z"/>
</g>
</svg>
